X:1
T:The Atoning Blood
T:The Atoning Blood
T:J. J. Sims
T:Charles Russell Hurditch, 1873
T:Public Domain Courtesy of the Cyber Hymnal™
T:Public Domain Courtesy of the Cyber Hymnal™
C:J. J. Sims
Z:Public Domain
Z:Courtesy of the Cyber Hymnal™
%%score ( 1 2 ) ( 3 4 )
L:1/8
M:4/4
K:Eb
V:1 treble 
V:2 treble 
V:3 bass 
V:4 bass 
V:1
 [EG]2 | [EG]2 [EG]2 [EG]2 [EG]2 | [EG]4 [EG]2 [EB]2 | [FB]2 [DF]2 [EG]2 [FA]2 | [EG]6 [EG]2 | %5
w: 1.~Th’a-|ton- ing blood is|flow- ing— Let|all the tid- ings|hear; The|
w: 2.~Th’a-|ton- ing blood is|sav- ing Sin-|ners of deep- est|dye, And|
w: 3.~Th’a-|ton- ing blood is|bring- ing Poor|lost ones to the|fold, And|
w: 4.~Th’a-|ton- ing blood is|stay- ing The|great a- veng- ing|rod, While|
 [EG]2 [CF]2 [CF]2 E2 | [CE]4 [CF]2 [EG]2 | [FA]2 [FA]2 [EG]2 [DF]2 | [B,E]6 [EB]2 | %9
w: Gos- pel word is|show- ing How|sin- ners may draw|near. Th’a-|
w: mul- ti- tudes are|hav- ing Free|ti- tles to the|sky. Th’a-|
w: heav’n- ly hosts are|sing- ing O’er|mul- ti- tudes un-|told. Th’a-|
w: men are still de-|lay- ing To|yield them- selves to|God. Th’a-|
 [EB]2 [FB]2 [GB]2 [GB]2 | [^Fc]4 [GB]2 [Ec]2 | [DB]2 [Ec]2 [Fd]2 [Ec]2 | [DB]6 [FA]2 | %13
w: ton- ing blood’s re-|liev- ing The|pris- oners from their|chains, And|
w: ton- ing blood is|heal- ing The|souls that sin had|slain; Rej-|
w: ton- ing blood is|speak- ing To|ev- ery pre- cious|soul Who|
w: ton- ing blood is|seal- ing The|world’s e- ter- nal|doom; But,|
 G2 [FA]2 [EB]2 [Ee]2 | [Fd]4 [Ec]2 [Ec]2 | [Fd]2 [Ge]2 [EG]2 [DF]2 | [B,E]6 ||"^Refrain" E2 | %18
w: sin- ners in be-|liev- ing Lose|all their guil- ty|stains.||
w: oic- ing saints are|feel- ing The|prom- ised “lat- ter|rain.”|It|
w: is sal- va- tion|seek- ing, “Be-|lieve, and be made|whole.”||
w: to thy soul ap-|peal- ing, Says,|“Lost one, to Me|come.”||
 G2 B2 (z2 x4 | e6) d2 | c2 G2 (A4- | A6) A2 | B2 c2 (z2 x4 | d6) d2 | B2 ^F2 (z2 x4 | %25
w: |||||||
w: is the|* blood,|the pre- cious|* blood,|It is|* the|blood, the|
w: |||||||
w: |||||||
 G6)"^riten." [EG]2 | [DA]2 [_DB]2 !fermata![Cc]2 [EB]2 | [Ec]2 [Ec]2 [Fd]2 [Fd]2 | [Ge]6 E2 | %29
w: ||||
w: * pre-|cious blood, It is|the blood that mak-|eth An|
w: ||||
w: ||||
 [EG]6 [DF]2 | [B,E]6 |] %31
w: ||
w: a- tone-|ment|
w: ||
w: ||
V:2
 x2 | x8 | x8 | x8 | x8 | x6 E2 | x8 | x8 | x8 | x8 | x8 | x8 | x8 | G2 x6 | x8 | x8 | x6 || x2 | %18
 x4 e4- G2 | (G2 G2 G2) x2 | x8 | (D2 D2 D2) x2 | x4 d4- F2 | (F2 F2 F2) x2 | x4 G4- E2 | %25
 (E2 E2 E2) x2 | x8 | x8 | x6 E2 | x8 | x6 |] %31
V:3
 [E,B,]2 | [E,B,]2 [E,B,]2 [E,B,]2 [E,=B,]2 | [E,C]4 [E,B,]2 [E,G,]2 | %3
w: ~|~ ~ ~ ~|~ ~ ~|
 [B,,A,]2 [B,,B,]2 [B,,B,]2 [B,,B,]2 | [E,B,]6 [E,B,]2 | [G,B,]2 A,2 [A,,A,]2 [B,,G,]2 | %6
w: ~ ~ ~ ~|~ ~|~ ~ ~ ~|
 [C,G,]4 [A,,A,]2 [G,,B,]2 | [F,,C]2 [A,,C]2 [B,,B,]2 [B,,A,]2 | [E,G,]6 [E,G,]2 | %9
w: ~ ~ ~|~ ~ ~ ~|~ ~|
 [E,G,]2 [E,A,]2 [E,B,]2 [E,B,]2 | [E,=A,]4 [E,B,]2 [E,B,]2 | [F,B,]2 [F,=A,]2 [F,A,]2 [F,A,]2 | %12
w: ~ ~ ~ ~|~ ~ ~|~ ~ ~ ~|
 [B,,B,]6 [B,,B,]2 | [E,B,]2 [F,B,]2 [G,B,]2 [C,C]2 | [G,=B,]4 [A,C]2 A,2 | %15
w: ~ ~|~ ~ ~ ~|~ ~ ~|
 [F,A,]2 [E,B,]2 [B,,B,]2 [B,,A,]2 | [E,G,]6 || z2 | z6 [E,B,]2 x2 | [E,B,]2 [E,B,]2 [E,B,]2 z2 | %20
w: ~ ~ ~ ~|~||It|is the blood,|
 z6 [F,B,]2 | [F,B,]2 [F,B,]2 [F,B,]2 z2 | z6 [B,,B,]2 x2 | [D,B,]2 [F,B,]2 B,2 z2 | %24
w: the|pre- cious blood,|It|is the blood,|
 z6 [E,B,]2 x2 | [E,B,]2 [E,B,]2 [E,B,]2 [E,B,]2 | [F,B,]2 [G,B,]2 !fermata!A,2 [G,B,]2 | %27
w: the|pre- cious blood, *||
 A,2 A,2 [F,A,]2 [F,A,]2 | [E,B,]6 [E,B,]2 | [B,,B,]6 [B,,A,]2 | [E,G,]6 |] %31
w: ||||
V:4
 x2 | x8 | x8 | x8 | x8 | x2 A,2 x4 | x8 | x8 | x8 | x8 | x8 | x8 | x8 | x8 | x6 A,2 | x8 | x6 || %17
 x2 | x10 | x8 | x8 | x8 | x10 | x4 B,2 x2 | x10 | x8 | x4 A,2 x2 | A,2 A,2 x4 | x8 | x8 | x6 |] %31

